www/assets/icons/book_online.svg

<svg xmlns="http://www.w3.org/2000/svg" width="24" height="24" viewBox="0 0 24 24" fill='currentColor'><path d="M17 1H7c-1.1 0-2 .9-2 2v18c0 1.1.9 2 2 2h10c1.1 0 2-.9 2-2V3c0-1.1-.9-2-2-2M7 18V6h10v12zm9-7V9.14C16 8.51 15.55 8 15 8H9c-.55 0-1 .51-1 1.14v1.96c.55 0 1 .45 1 1s-.45 1-1 1v1.76c0 .63.45 1.14 1 1.14h6c.55 0 1-.51 1-1.14V13c-.55 0-1-.45-1-1s.45-1 1-1m-3.5 3.5h-1v-1h1zm0-2h-1v-1h1zm0-2h-1v-1h1z"/></svg>

<svg width="24" height="24" viewBox="0 0 24 24" xmlns="http://www.w3.org/2000/svg" fill='currentColor'><path d="M17 1H7C5.9 1 5 1.9 5 3V21C5 22.1 5.9 23 7 23H17C18.1 23 19 22.1 19 21V3C19 1.9 18.1 1 17 1ZM7 18V6H17V18H7ZM16 11V9.14C16 8.51 15.55 8 15 8H9C8.45 8 8 8.51 8 9.14V11.1C8.55 11.1 9 11.55 9 12.1C9 12.65 8.55 13.1 8 13.1V14.86C8 15.49 8.45 16 9 16H15C15.55 16 16 15.49 16 14.86V13C15.45 13 15 12.55 15 12C15 11.45 15.45 11 16 11ZM12.5 14.5H11.5V13.5H12.5V14.5ZM12.5 12.5H11.5V11.5H12.5V12.5ZM12.5 10.5H11.5V9.5H12.5V10.5Z"/></svg>
